X:1
T:James Gibb editions
T:Psalm 68 (Becker) - Schütz
%%score [ ( 1 2 ) ( 3 4 ) ]
L:1/8
Q:1/4=100
M:3/4
K:F
V:1 treble nm="Soprano Alto"
V:2 treble 
V:3 bass nm="Tenor Bass"
V:4 bass 
V:1
"^Cornelius Becker\n(1561-1604)""^Psalm 68, SWV 165""^Heinrich Schütz\n(1585-1672)" D2 | G4 B2 | %2
w: ~Es|steh Gott|
w: und|all, die|
w: ||
 d4 A2 | (B3 A) G2 | ^F4 F2 | G4 A2 | (B2 d2 c2 | B2 f2 _e2) | d2 c4 | B6- | B4 :| d2 | c2 c2 B2 | %13
w: auf, daß|sei\- * ne|Feind plötz-|lich zer-|streu\- * *||et wer-|den||||
w: ihm zu-|wi\- * der|seind, vor|ihm flie-|hen * *||auf Er-|||der|Gott- los ver-|
w: |||||||den,||||
 G4 c2 | B2 A2 G2 | F4 F2 | B2 B2 A2 | G4 G2 | c2 d B2 B | A4 A2 | d4 c2 | (B3 A G2) | B2 A4 | %23
w: |||||Wachs zer- schmel- zet|bald, vor|Gott muß|er * *|um- kom-|
w: schwindt, gleich-|wie Rauch vom|Wind, mit|Feu- ers- ge-|walt das||||||
w: ||||||||||
 G6- | G4 |] %25
w: men.||
w: ||
w: ||
V:2
 B,2 | D4 G2 | G4 A2 | D4 G,2 | D4 D2 | D4 F2 | (F4 A2 | D4 G2) | F2 F4 | F6- | F4 :| F2 | %12
 F2 F2 D2 | E4 F2 | D2 F2 E2 | F4 D2 | D2 D2 F2 | E4 E2 | A2 F G2 G | ^F4 D2 | =F4 F2 | %21
 (G3 F _E2) | D2 D4 | D6- | D4 |] %25
V:3
 G,2 | B,4 D2 | B,4 D2 | B,4 C2 | A,4 A,2 | B,4 C2 | (D2 B,2 A,2 | B,2 D2 G,2) | B,2 A,4 | B,6- | %10
w: ||||||||||
 B,4 :| B,2 | A,2 A,2 B,2 | C4 C2 | F,2 C2 C2 | C4 B,2 | B,2 B,2 C2 | C4 C2 | %18
w: ||||||||
"^2. Der G'rechte muß des freuen sich\nfröhlich allzeit im Herren, \nvon Herzensgrund ganz inniglich singt \ner sein'm Namen Ehre, \nmacht Bahn, lieben Leut, \nder Weg sei bereit, \nder Herr fährt herein \nund kehrt sanft bei uns ein, \nsein Zukunft uns erfreuet.\n\n7. Wenn Gottes Heer zu Felde zeucht,\ndas Himmelreich zu mehren, \nvon Gaben schön es herrlich leucht \nund glänzet weit und ferne, \ngleich dem feinen Gold. \nWenn die Lehrer hold\nverkünden die Lehr, \nso wird es hell und klar \nund leucht fern in die Lande." C2 B, D2 D | %19
w: |
 D4 F,2 | %20
w: |
 B,4"^8. Die liebe Kirch, des Herren Berg, \nist fruchtbar und gediegen, \nvergebens ist all Macht und Stärk, \ndie darwider will kriegen, \nbei ihr wohnet Gott, \ndrum hats keine Not, \ner streitet für sie, \nhat sie verlassen nie \ntrotz allen höll'schen Pforten.\n\n10. Gelobt sei täglich unser Gott, \nder uns ein Last aufleget, \nhilft uns doch wieder aus der Not \nund heilt, was er zerschläget. \nWir hab'n einen Herrn, \nder hilft herzlich gern, \ntreu ist unser Gott, \nerrett uns aus dem Tod, \nwas wollten wir uns fürchten?" C2 | %21
w: |
 D4 G,2- | G,2 ^F,4 | G,6- | G,4 |] %25
w: er um\-|* kom-|men.||
V:4
 G,2 | G,4 G,2 | G,4 ^F,2 | (G,3 =F,) _E,2 | D,4 D,2 | G,4 F,2 | (B,2 B,,2 F,2 | G,2 D,2 _E,2) | %8
 B,,2 F,4 | B,,6- | B,,4 :| B,2 | F,2 F,2 G,2 | C,4 A,,2 | B,,2 F,,2 C,2 | F,,4 B,,2 | %16
 G,,2 G,,2 F,,2 | C,4 C,2 | A,,2 B,, G,,2 G,, | D,4 D,2 | B,,4 A,,2 | (G,,3 A,,/B,,/ C,2) | %22
 G,,2 D,4 | G,,6- | G,,4 |] %25

